svg/color/arkm.svg

<svg version="1.1" id="Layer_1" xmlns="http://www.w3.org/2000/svg" xmlns:xlink="http://www.w3.org/1999/xlink" x="0px" y="0px"
	 width="100%" viewBox="0 0 200 200" enable-background="new 0 0 200 200" xml:space="preserve">
<path fill="#010101" opacity="1.000000" stroke="none" 
	d="
M136.000000,201.000000 
	C90.666672,201.000000 45.833340,201.000000 1.000006,201.000000 
	C1.000004,134.333344 1.000004,67.666679 1.000002,1.000015 
	C67.666656,1.000010 134.333313,1.000010 200.999969,1.000005 
	C200.999985,67.666649 200.999985,134.333298 201.000000,200.999969 
	C179.500000,201.000000 158.000000,201.000000 136.000000,201.000000 
M90.499908,43.993134 
	C80.736862,43.993134 70.973808,43.993134 61.234444,43.993134 
	C59.131042,50.519016 57.202946,56.501022 55.200420,62.713940 
	C77.987503,62.713940 100.381927,62.713940 123.318123,62.713940 
	C121.234901,56.278984 119.264977,50.194000 117.257545,43.993134 
	C108.449692,43.993134 99.974815,43.993134 90.499908,43.993134 
M56.369877,118.956017 
	C61.942196,101.853523 67.514519,84.751038 73.217361,67.247948 
	C67.152901,67.247948 61.831261,67.099831 56.529388,67.357857 
	C55.289692,67.418190 53.387825,68.610031 53.022594,69.695724 
	C47.325947,86.629715 41.831902,103.631851 36.280373,120.651207 
	C41.576935,124.461655 46.625443,128.093643 52.108177,132.038025 
	C53.572559,127.534615 54.844952,123.621643 56.369877,118.956017 
M134.349548,82.207863 
	C137.262482,91.014328 140.175415,99.820793 143.225159,109.040871 
	C148.682281,105.082504 153.771057,101.391319 158.988617,97.606728 
	C153.102539,79.595062 147.298660,61.834949 141.546280,44.232388 
	C134.863297,44.232388 128.618652,44.232388 122.037537,44.232388 
	C126.132904,56.848076 130.126022,69.148834 134.349548,82.207863 
M123.941284,128.462708 
	C117.815254,132.928040 111.689224,137.393372 105.248863,142.087814 
	C110.101685,145.614578 114.296715,148.889862 118.759598,151.746689 
	C119.869270,152.457031 122.295494,152.449097 123.354408,151.697525 
	C137.063095,141.967529 150.663742,132.083633 164.177231,122.083923 
	C165.150391,121.363785 165.927917,119.248238 165.611862,118.110565 
	C164.161346,112.889267 162.289413,107.785034 160.374252,102.057091 
	C148.168823,110.905411 136.346390,119.476089 123.941284,128.462708 
M92.326073,138.194305 
	C82.376869,131.018753 72.427658,123.843216 62.005611,116.326653 
	C59.894722,122.724129 57.940323,128.647339 56.010300,134.496658 
	C56.546551,135.065918 56.834129,135.485687 57.222206,135.766617 
	C71.912140,146.400711 86.611313,157.022018 101.446983,167.744598 
	C106.586853,164.002533 111.710220,160.272461 117.225983,156.256714 
	C108.756371,150.130783 100.818443,144.389420 92.326073,138.194305 
M72.739273,83.202766 
	C72.537956,83.979591 72.336647,84.756416 72.122353,85.583328 
	C83.570969,85.583328 94.796814,85.583328 106.514366,85.583328 
	C105.210266,81.409515 103.660614,77.701675 102.939316,73.839157 
	C101.932465,68.447563 99.236961,66.520882 93.764801,67.133186 
	C88.669968,67.703270 82.033844,65.483643 78.719589,67.988960 
	C75.184875,70.660934 74.748650,77.431847 72.739273,83.202766 
M111.962959,87.668274 
	C113.305664,91.731285 114.648369,95.794304 116.132973,100.286690 
	C121.685196,96.252930 126.845963,92.503563 131.887894,88.840530 
	C129.774033,82.321892 127.966431,76.293587 125.794403,70.399574 
	C125.309395,69.083466 123.596970,67.398987 122.360397,67.322243 
	C116.937462,66.985680 111.481750,67.177208 105.265884,67.177208 
	C107.545723,74.108063 109.650322,80.506195 111.962959,87.668274 
M64.377518,112.592300 
	C69.172203,116.048088 73.966896,119.503876 79.228546,123.296227 
	C82.872498,112.022499 86.335709,101.307938 89.928452,90.192619 
	C83.880608,90.192619 78.574883,90.082298 73.280518,90.278656 
	C72.116066,90.321854 70.270226,91.212471 69.964951,92.123802 
	C67.770325,98.675354 65.892113,105.332893 64.377518,112.592300 
M105.151405,136.692917 
	C109.076759,133.797180 113.002106,130.901443 117.171532,127.825661 
	C107.526154,120.869736 98.459740,114.331329 88.937965,107.464539 
	C86.892258,114.033554 82.923004,120.284897 83.965431,125.542595 
	C84.760506,129.552704 91.906090,132.306366 96.232452,135.611267 
	C97.024078,136.216003 97.961342,136.674026 98.629227,137.388672 
	C100.767174,139.676315 102.661469,138.921860 105.151405,136.692917 
M116.543076,121.939293 
	C118.013649,122.971237 119.484222,124.003181 121.051353,125.102882 
	C126.597107,121.088554 132.018829,117.286949 137.260498,113.251442 
	C138.156906,112.561302 138.945358,110.681587 138.655945,109.675957 
	C137.121002,104.342407 135.226151,99.112442 133.274063,93.305458 
	C123.741646,100.227806 114.688011,106.802475 105.172104,113.712837 
	C109.032204,116.505211 112.497841,119.012222 116.543076,121.939293 
z"/>
<path fill="#FAFAFA" opacity="1.000000" stroke="none" 
	d="
M90.999924,43.993134 
	C99.974815,43.993134 108.449692,43.993134 117.257545,43.993134 
	C119.264977,50.194000 121.234901,56.278984 123.318123,62.713940 
	C100.381927,62.713940 77.987503,62.713940 55.200420,62.713940 
	C57.202946,56.501022 59.131042,50.519016 61.234444,43.993134 
	C70.973808,43.993134 80.736862,43.993134 90.999924,43.993134 
z"/>
<path fill="#F9F9F9" opacity="1.000000" stroke="none" 
	d="
M56.243607,119.332352 
	C54.844952,123.621643 53.572559,127.534615 52.108177,132.038025 
	C46.625443,128.093643 41.576935,124.461655 36.280373,120.651207 
	C41.831902,103.631851 47.325947,86.629715 53.022594,69.695724 
	C53.387825,68.610031 55.289692,67.418190 56.529388,67.357857 
	C61.831261,67.099831 67.152901,67.247948 73.217361,67.247948 
	C67.514519,84.751038 61.942196,101.853523 56.243607,119.332352 
z"/>
<path fill="#FAFAFA" opacity="1.000000" stroke="none" 
	d="
M134.234344,81.828728 
	C130.126022,69.148834 126.132904,56.848076 122.037537,44.232388 
	C128.618652,44.232388 134.863297,44.232388 141.546280,44.232388 
	C147.298660,61.834949 153.102539,79.595062 158.988617,97.606728 
	C153.771057,101.391319 148.682281,105.082504 143.225159,109.040871 
	C140.175415,99.820793 137.262482,91.014328 134.234344,81.828728 
z"/>
<path fill="#FAFAFA" opacity="1.000000" stroke="none" 
	d="
M124.232613,128.254730 
	C136.346390,119.476089 148.168823,110.905411 160.374252,102.057091 
	C162.289413,107.785034 164.161346,112.889267 165.611862,118.110565 
	C165.927917,119.248238 165.150391,121.363785 164.177231,122.083923 
	C150.663742,132.083633 137.063095,141.967529 123.354408,151.697525 
	C122.295494,152.449097 119.869270,152.457031 118.759598,151.746689 
	C114.296715,148.889862 110.101685,145.614578 105.248863,142.087814 
	C111.689224,137.393372 117.815254,132.928040 124.232613,128.254730 
z"/>
<path fill="#FAFAFA" opacity="1.000000" stroke="none" 
	d="
M92.603294,138.421173 
	C100.818443,144.389420 108.756371,150.130783 117.225983,156.256714 
	C111.710220,160.272461 106.586853,164.002533 101.446983,167.744598 
	C86.611313,157.022018 71.912140,146.400711 57.222206,135.766617 
	C56.834129,135.485687 56.546551,135.065918 56.010300,134.496658 
	C57.940323,128.647339 59.894722,122.724129 62.005611,116.326653 
	C72.427658,123.843216 82.376869,131.018753 92.603294,138.421173 
z"/>
<path fill="#F6F6F6" opacity="1.000000" stroke="none" 
	d="
M72.849503,82.808037 
	C74.748650,77.431847 75.184875,70.660934 78.719589,67.988960 
	C82.033844,65.483643 88.669968,67.703270 93.764801,67.133186 
	C99.236961,66.520882 101.932465,68.447563 102.939316,73.839157 
	C103.660614,77.701675 105.210266,81.409515 106.514366,85.583328 
	C94.796814,85.583328 83.570969,85.583328 72.122353,85.583328 
	C72.336647,84.756416 72.537956,83.979591 72.849503,82.808037 
z"/>
<path fill="#F8F8F8" opacity="1.000000" stroke="none" 
	d="
M111.858948,87.286301 
	C109.650322,80.506195 107.545723,74.108063 105.265884,67.177208 
	C111.481750,67.177208 116.937462,66.985680 122.360397,67.322243 
	C123.596970,67.398987 125.309395,69.083466 125.794403,70.399574 
	C127.966431,76.293587 129.774033,82.321892 131.887894,88.840530 
	C126.845963,92.503563 121.685196,96.252930 116.132973,100.286690 
	C114.648369,95.794304 113.305664,91.731285 111.858948,87.286301 
z"/>
<path fill="#F7F7F7" opacity="1.000000" stroke="none" 
	d="
M64.145515,112.274551 
	C65.892113,105.332893 67.770325,98.675354 69.964951,92.123802 
	C70.270226,91.212471 72.116066,90.321854 73.280518,90.278656 
	C78.574883,90.082298 83.880608,90.192619 89.928452,90.192619 
	C86.335709,101.307938 82.872498,112.022499 79.228546,123.296227 
	C73.966896,119.503876 69.172203,116.048088 64.145515,112.274551 
z"/>
<path fill="#F8F8F8" opacity="1.000000" stroke="none" 
	d="
M104.847115,136.890778 
	C102.661469,138.921860 100.767174,139.676315 98.629227,137.388672 
	C97.961342,136.674026 97.024078,136.216003 96.232452,135.611267 
	C91.906090,132.306366 84.760506,129.552704 83.965431,125.542595 
	C82.923004,120.284897 86.892258,114.033554 88.937965,107.464539 
	C98.459740,114.331329 107.526154,120.869736 117.171532,127.825661 
	C113.002106,130.901443 109.076759,133.797180 104.847115,136.890778 
z"/>
<path fill="#F9F9F9" opacity="1.000000" stroke="none" 
	d="
M116.253273,121.729263 
	C112.497841,119.012222 109.032204,116.505211 105.172104,113.712837 
	C114.688011,106.802475 123.741646,100.227806 133.274063,93.305458 
	C135.226151,99.112442 137.121002,104.342407 138.655945,109.675957 
	C138.945358,110.681587 138.156906,112.561302 137.260498,113.251442 
	C132.018829,117.286949 126.597107,121.088554 121.051353,125.102882 
	C119.484222,124.003181 118.013649,122.971237 116.253273,121.729263 
z"/>
</svg>

<svg xmlns="http://www.w3.org/2000/svg" xml:space="preserve" viewBox="0 0 200 200"><path fill="#010101" d="M136 201H1V1h200v200zM90.5 43.993H61.234L55.2 62.713h68.118l-6.06-18.72zm-34.13 74.963 16.847-51.708c-6.064 0-11.386-.148-16.688.11-1.24.06-3.141 1.252-3.506 2.338-5.697 16.934-11.191 33.936-16.743 50.955l15.828 11.387a8620 8620 0 0 1 4.262-13.082m77.98-36.748 8.875 26.833 15.764-11.434-17.443-53.375h-19.508c4.095 12.616 8.088 24.917 12.312 37.976m-10.409 46.255-18.692 13.625c4.853 3.527 9.048 6.802 13.51 9.659 1.11.71 3.536.702 4.595-.05a2547 2547 0 0 0 40.823-29.613c.973-.72 1.75-2.836 1.435-3.973-1.45-5.222-3.323-10.326-5.238-16.054-12.205 8.848-24.028 17.42-36.433 26.406m-31.615 9.731-30.32-21.867-5.996 18.17c.537.569.824.989 1.212 1.27 14.69 10.634 29.39 21.255 44.225 31.978l15.779-11.488a7347 7347 0 0 1-24.9-18.063M72.74 83.203l-.617 2.38h34.392c-1.304-4.173-2.853-7.881-3.575-11.744-1.007-5.391-3.702-7.318-9.174-6.706-5.095.57-11.731-1.65-15.045.856-3.535 2.672-3.971 9.443-5.98 15.214m39.223 4.465 4.17 12.619 15.755-11.446c-2.114-6.52-3.922-12.547-6.094-18.441-.485-1.317-2.197-3.001-3.434-3.078-5.423-.336-10.878-.145-17.094-.145 2.28 6.931 4.384 13.33 6.697 20.491m-47.585 24.924 14.85 10.704 10.7-33.103c-6.047 0-11.353-.11-16.647.086-1.165.043-3.01.933-3.316 1.845-2.195 6.551-4.073 13.209-5.587 20.468m40.773 24.1 12.02-8.866-28.233-20.361c-2.046 6.569-6.015 12.82-4.973 18.078.796 4.01 7.941 6.763 12.267 10.068.792.605 1.73 1.063 2.397 1.778 2.138 2.287 4.032 1.533 6.522-.696m11.392-14.754 4.508 3.164c5.546-4.014 10.968-7.816 16.21-11.852.896-.69 1.684-2.57 1.395-3.575-1.535-5.334-3.43-10.564-5.382-16.37l-28.102 20.407z"/><path fill="#FAFAFA" d="M91 43.993h26.258l6.06 18.72H55.2l6.034-18.72z"/><path fill="#F9F9F9" d="M56.244 119.332c-1.399 4.29-2.671 8.203-4.136 12.706L36.28 120.651c5.552-17.02 11.046-34.021 16.743-50.955.365-1.086 2.267-2.278 3.506-2.338 5.302-.258 10.624-.11 16.688-.11-5.702 17.503-11.275 34.606-16.973 52.084"/><path fill="#FAFAFA" d="M134.234 81.829c-4.108-12.68-8.101-24.98-12.196-37.597h19.508l17.443 53.375-15.764 11.434c-3.05-9.22-5.963-18.027-8.99-27.212m-10.002 46.426c12.113-8.779 23.936-17.35 36.141-26.198 1.915 5.728 3.787 10.832 5.238 16.054.316 1.137-.462 3.253-1.435 3.973a2547 2547 0 0 1-40.823 29.614c-1.059.751-3.485.759-4.594.049-4.463-2.857-8.658-6.132-13.511-9.66 6.44-4.694 12.566-9.159 18.984-13.832m-31.63 10.166a14243 14243 0 0 0 24.623 17.836l-15.779 11.488c-14.836-10.723-29.535-21.344-44.225-31.978-.388-.281-.675-.701-1.212-1.27l5.996-18.17a21844 21844 0 0 1 30.597 22.094"/><path fill="#F6F6F6" d="M72.85 82.808c1.899-5.376 2.335-12.147 5.87-14.819 3.314-2.505 9.95-.286 15.045-.856 5.472-.612 8.167 1.315 9.174 6.706.722 3.863 2.271 7.57 3.575 11.744H72.122c.215-.827.416-1.603.728-2.775"/><path fill="#F8F8F8" d="M111.859 87.286a7210 7210 0 0 0-6.593-20.109c6.216 0 11.671-.191 17.094.145 1.237.077 2.95 1.761 3.434 3.078 2.172 5.894 3.98 11.922 6.094 18.44l-15.755 11.447a2946 2946 0 0 1-4.274-13"/><path fill="#F7F7F7" d="M64.146 112.275c1.746-6.942 3.624-13.6 5.819-20.151.305-.912 2.151-1.802 3.316-1.845 5.294-.197 10.6-.086 16.647-.086l-10.7 33.103c-5.261-3.792-10.056-7.248-15.082-11.021"/><path fill="#F8F8F8" d="M104.847 136.89c-2.186 2.032-4.08 2.786-6.218.499-.668-.715-1.605-1.173-2.397-1.778-4.326-3.305-11.471-6.058-12.267-10.068-1.042-5.258 2.927-11.51 4.973-18.078l28.234 20.36c-4.17 3.076-8.095 5.972-12.325 9.066"/><path fill="#F9F9F9" d="m116.253 121.73-11.08-8.017 28.101-20.408c1.952 5.807 3.847 11.037 5.382 16.371.29 1.006-.5 2.885-1.396 3.575-5.241 4.036-10.663 7.838-16.209 11.852a2189 2189 0 0 1-4.798-3.374"/></svg>
